packages/icons/raw/imported/SecurityVerifiedFace.svg

<svg width="32" height="32" viewBox="0 0 32 32" fill="none" xmlns="http://www.w3.org/2000/svg">
<path d="M10.8846 7C11.1608 7 11.3846 6.77614 11.3846 6.5C11.3846 6.22386 11.1608 6 10.8846 6V7ZM6 10.8846C6 11.1608 6.22386 11.3846 6.5 11.3846C6.77614 11.3846 7 11.1608 7 10.8846H6ZM21.1154 6C20.8392 6 20.6154 6.22386 20.6154 6.5C20.6154 6.77614 20.8392 7 21.1154 7V6ZM25 10.8846C25 11.1608 25.2239 11.3846 25.5 11.3846C25.7761 11.3846 26 11.1608 26 10.8846H25ZM10.8846 26C11.1608 26 11.3846 25.7761 11.3846 25.5C11.3846 25.2239 11.1608 25 10.8846 25V26ZM7 21.1154C7 20.8392 6.77614 20.6154 6.5 20.6154C6.22386 20.6154 6 20.8392 6 21.1154H7ZM21.1154 25C20.8392 25 20.6154 25.2239 20.6154 25.5C20.6154 25.7761 20.8392 26 21.1154 26V25ZM26 21.1154C26 20.8392 25.7761 20.6154 25.5 20.6154C25.2239 20.6154 25 20.8392 25 21.1154H26ZM12.5769 14.5385C12.5769 14.8146 12.8008 15.0385 13.0769 15.0385C13.3531 15.0385 13.5769 14.8146 13.5769 14.5385L12.5769 14.5385ZM13.5769 12.3462C13.5769 12.07 13.3531 11.8462 13.0769 11.8462C12.8008 11.8462 12.5769 12.07 12.5769 12.3462L13.5769 12.3462ZM18.4231 14.5385C18.4231 14.8146 18.6469 15.0385 18.9231 15.0385C19.1992 15.0385 19.4231 14.8146 19.4231 14.5385L18.4231 14.5385ZM19.4231 12.3462C19.4231 12.07 19.1992 11.8462 18.9231 11.8462C18.6469 11.8462 18.4231 12.07 18.4231 12.3462L19.4231 12.3462ZM12.6935 19.2942C12.4948 19.1024 12.1783 19.1079 11.9865 19.3065C11.7947 19.5052 11.8002 19.8217 11.9988 20.0135L12.6935 19.2942ZM16 21.1154V21.6154V21.1154ZM20.0012 20.0135C20.1998 19.8217 20.2053 19.5052 20.0135 19.3065C19.8217 19.1079 19.5052 19.1024 19.3065 19.2942L20.0012 20.0135ZM10.5 7H10.8846V6H10.5V7ZM7 10.8846V10.5H6V10.8846H7ZM10.5 6C8.01472 6 6 8.01472 6 10.5H7C7 8.567 8.567 7 10.5 7V6ZM21.5 6H21.1154V7H21.5V6ZM26 10.8846V10.5H25V10.8846H26ZM21.5 7C23.433 7 25 8.567 25 10.5H26C26 8.01472 23.9853 6 21.5 6V7ZM10.5 26H10.8846V25H10.5V26ZM6 21.1154V21.5H7V21.1154H6ZM10.5 25C8.567 25 7 23.433 7 21.5H6C6 23.9853 8.01472 26 10.5 26V25ZM21.5 25H21.1154V26H21.5V25ZM25 21.1154V21.5H26V21.1154H25ZM21.5 26C23.9853 26 26 23.9853 26 21.5H25C25 23.433 23.433 25 21.5 25V26ZM13.5769 14.5385L13.5769 12.3462L12.5769 12.3462L12.5769 14.5385L13.5769 14.5385ZM19.4231 14.5385L19.4231 12.3462L18.4231 12.3462L18.4231 14.5385L19.4231 14.5385ZM11.9988 20.0135C13.0629 21.0411 14.5025 21.6154 16 21.6154V20.6154C14.7566 20.6154 13.5675 20.1382 12.6935 19.2942L11.9988 20.0135ZM16 21.6154C17.4975 21.6154 18.9371 21.0411 20.0012 20.0135L19.3065 19.2942C18.4325 20.1382 17.2434 20.6154 16 20.6154V21.6154Z" fill="black"/>
</svg>

<svg width="32" height="32" fill="none" xmlns="http://www.w3.org/2000/svg"><path d="M10.885 7a.5.5 0 1 0 0-1v1ZM6 10.885a.5.5 0 1 0 1 0H6ZM21.115 6a.5.5 0 1 0 0 1V6ZM25 10.885a.5.5 0 1 0 1 0h-1ZM10.885 26a.5.5 0 1 0 0-1v1ZM7 21.115a.5.5 0 1 0-1 0h1ZM21.115 25a.5.5 0 1 0 0 1v-1ZM26 21.115a.5.5 0 1 0-1 0h1ZM12.577 14.54a.5.5 0 0 0 1 0h-1Zm1-2.193a.5.5 0 1 0-1 0h1Zm4.846 2.193a.5.5 0 1 0 1 0h-1Zm1-2.193a.5.5 0 1 0-1 0h1Zm-6.73 6.948a.5.5 0 0 0-.694.72l.694-.72ZM16 21.115v.5-.5Zm4.001-1.101a.5.5 0 0 0-.695-.72l.695.72ZM10.5 7h.385V6H10.5v1ZM7 10.885V10.5H6v.385h1ZM10.5 6A4.5 4.5 0 0 0 6 10.5h1A3.5 3.5 0 0 1 10.5 7V6Zm11 0h-.385v1h.385V6Zm4.5 4.885V10.5h-1v.385h1ZM21.5 7a3.5 3.5 0 0 1 3.5 3.5h1A4.5 4.5 0 0 0 21.5 6v1Zm-11 19h.385v-1H10.5v1ZM6 21.115v.385h1v-.385H6ZM10.5 25A3.5 3.5 0 0 1 7 21.5H6a4.5 4.5 0 0 0 4.5 4.5v-1Zm11 0h-.385v1h.385v-1Zm3.5-3.885v.385h1v-.385h-1ZM21.5 26a4.5 4.5 0 0 0 4.5-4.5h-1a3.5 3.5 0 0 1-3.5 3.5v1Zm-7.923-11.461v-2.193h-1v2.193h1Zm5.846 0v-2.193h-1v2.193h1ZM12 20.014A5.762 5.762 0 0 0 16 21.614v-1a4.762 4.762 0 0 1-3.306-1.32l-.695.718ZM16 21.614a5.762 5.762 0 0 0 4.001-1.601l-.695-.72A4.762 4.762 0 0 1 16 20.615v1Z" fill="#000"/></svg>
